X: 2481
T: Troika
B: kameruka bush dance
M:4/4
Q: 1/4=134
K:Am
V:1 
"Am"E2 e2 e2 d2| c4 B4| A2A2A2^G2| A2E2F2E2|E2e2e2d2|
c4B4|A2A2A2^G2|A8|"C"E2g2g2f2|f2e2e4|"Am"E2e2e2d2|
d2c2c4|c2B2c2d2|e4E4|c2B2A2^G2|A2z2A2B2||
"C"c4c4|c4B2A2|"G"B4B4|B4A2^G2|"Am"A4A4|
A2c2B2A2|"E"^G4E4|E4A2B2|"Am"c4c4|c4B2c2|
"Dm"d4d4|d4c2d2|"Am"e4E4|"E"c2B2A2^G2|"Am"A8|A8||
W: 
% abcbook-tune_id 6343f273aaa0de1d2f48dd6a


% abcbook-boost 0
% abcbook-tablature 
% abcbook-transpose 
% abcbook-lastupdated 1666318842161
% abcbook-soundfonts 
% abcbook-repeats 3


